Adwaita++/apps/16/rygel.svg

<svg height="16" width="16" xmlns="http://www.w3.org/2000/svg">
  <path d="m4.2151929.4999506.021972.065144-.00549.00186.00916.024196c.030591.095438.053433.1920156.073242.290358.019772.098317.036682.1981245.045776.2978031.009.099715.012504.2000668.010987.2996644-.00141.099603-.010057.1997906-.021973.297803-.01185.09801-.027276.1936125-.049438.2884968-.022162.094906-.048232.1888738-.080567.2791904-.032325.090322-.069339.1782111-.1116932.2624391-.042366.084229-.092386.1634516-.1446528.2401037l.010986-.00372c-.0555422.0778538-.1073855.1602695-.1538122.2438266-.046453.0835573-.0858457.1684619-.1226797.2568551-.036826.088394-.070341.1794105-.097046.2717454-.0267.092335-.046187.1856753-.062256.2810517-.016088.095354-.028047.1947435-.03296.2922193-.00497.097478-.00308.1935246.00367.2922192.00675.098709.01957.1987676.038452.2978032.018862.099016.041695.1974987.073242.2959418.0261.08146.058169.1615623.091552.2382424.033375.07668.06791.1498149.1080323.2214912.080222.1433525.1742158.2766465.278319.3983116.1041024.1216595.2203856.2315886.3442363.3294447.1238178.097842.25609.1830661.3955059.254994.1393944.0719.2867771.1292369.4376202.173098.1508786.043861.305106.07381.4632549.08748.1581583.013698.3184316.013149.4797344-.00559.080653-.00922.1610514-.023029.2416976-.040948.080672-.017891.1615446-.040449.2416986-.067006.080134-.026551.1589-.05543.2343703-.089338.075478-.0339095.1491724-.0728073.2197256-.1135377.1410825-.0814903.2720215-.1771925.3918429-.2829148.1197988-.1057253.2276886-.2223332.324095-.3480574.0964046-.1257409.1799514-.2586403.2508542-.4001729.0708934-.1415634.1270024-.2897868.1702866-.4429821.0432842-.1531926.0743434-.3121311.0878903-.4727624.0135787-.1606238.01098-.3237709-.0073293-.4876478-.0090937-.0819354-.0209399-.1637519-.0384523-.2456876-.0174936-.0819639-.0416398-.1642271-.0677481-.2456876-.0315561-.0984569-.0677059-.1934484-.1098632-.2847741-.0421592-.0913288-.0891587-.1786863-.1409909-.262439-.0518342-.0837527-.1078769-.1643182-.1684559-.2401038-.0605622-.0757859-.1257229-.1466468-.1940907-.214046-.0683903-.0673711-.1389903-.131284-.2142327-.1898495-.0752434-.0585657-.1550365-.1126181-.2362049-.1619305-.0811776-.04934-.1646795-.09251-.2508532-.1321501-.0861746-.0396682-.1752657-.0765158-.2655015-.1060924l.012816-.00372c-.0868772-.0305573-.1710578-.0653845-.2545146-.1079596-.0834652-.0425473-.1645304-.0917577-.2435294-.1451791-.0789935-.0534502-.1571927-.1117254-.2307112-.1749594-.0734996-.0632333-.143584-.1328677-.2105708-.2047396-.066984-.0718996-.1291682-.1457658-.188597-.2252135-.0594288-.0794472-.1139516-.1635329-.1647949-.2494101-.0508497-.0858769-.0997523-.1749449-.1409899-.2661615-.0098156-.0218049-.0172256-.0446976-.0256348-.0670058zm6.3848581 3.7672093c-.04832.00116-.09614.00352-.144653.00744-.09704.00783-.193906.020738-.291137.040948-.09725.020132-.1927539.045189-.289305.078177-.079903.0273965-.1592166.0584277-.2343738.0930636-.0751311.0346358-.1477558.0721086-.2178946.1135374-.1402933.0828565-.2694465.1778596-.3881813.2847729-.1187403.1069273-.2271411.2268742-.3222641.3536411-.0951342.1267473-.1795463.2615354-.2490222.4038955-.0694591.142374-.1230229.2929642-.164794.4467047-.041756.1537237-.068576.311888-.080567.4727625-.011991.1608801-.00882.322001.010987.4857912.0099.08188.02203.165725.040283.2475488.018234.081824.040908.1625896.067748.2438263.026841.081209.057485.1599807.091552.2363812.034041.076401.072792.1520117.1135251.2233525.081459.1426535.1750567.2737682.2801499.394589.1050867.1208209.2215002.2307534.3460681.3275834.1245744.096836.2574447.1804898.3973368.2512714.1399026.070753.2865295.1267724.4376201.1693756.1511.042575.306937.07143.465085.083757.158129.0123.318698.010821.479735-.00931.08052-.010063.161244-.024192.241697-.042809.08046-.018451.15997-.041584.239868-.068868.09656-.032987.190699-.073566.28015-.11726.08945-.043694.174416-.091729.256346-.1451791.08192-.053451.160376-.1108146.234374-.173098.07401-.062255.143067-.1271838.208739-.1972945.06567-.070111.128009-.1463368.184936-.2233523.05692-.077015.107858-.1571339.155639-.2401038.04778-.082971.09179-.167048.130005-.254994.03823-.087946.07245-.179746.100707-.2717454l.0037.013029c.02925-.088589.06328-.1735101.104369-.2587164.04111-.085234.08914-.1686206.14099-.2494101.05185-.08079.110597-.1610988.172119-.2363812.06152-.075283.127634-.1471385.197753-.2159073.0701-.06874.142118-.134324.219725-.1954333.07761-.061137.159502-.1169044.243529-.1693756.08403-.052472.170652-.1005747.260009-.1433176.06754-.032316.138522-.061174.208739-.08748l.0019.00372c.221804-.046237.432537-.067522.650022-.078173.103541-.00503.209056-.00819.31677-.00931v-.9883207c-.119854.00178-.241046.00604-.366209.013029-.255849.014257-.525482.043201-.818477.1005085l-.0019-.00559-.0238.00744c-.09361.031952-.189102.059013-.285643.080034-.09654.020966-.194958.036384-.292968.046532-.098.010063-.196807.01517-.294798.01489-.098-.0005312-.194624-.00743-.291137-.018612-.09651-.011182-.192082-.026728-.285642-.048393-.09356-.021525-.185519-.049859-.274657-.081895-.08913-.032033-.174947-.067517-.258172-.1098124-.08324-.042295-.162158-.090903-.238037-.1433178l.0037.011167c-.07708-.055741-.159059-.1080795-.241692-.1544845-.08264-.046461-.167213-.088056-.254516-.1247049-.0873-.036621-.176261-.068618-.267333-.094924-.09107-.026277-.184365-.044101-.278319-.05956-.09395-.015375-.189698-.027616-.285642-.031642-.04797-.00205-.0945-.00116-.142822 0zm-6.8993819 2.3880087c-.1581498-.0123-.316866-.00896-.4779035.011167-.080522.010063-.1612378.026053-.2416974.044671-.080456.01845-.1617865.041612-.2416987.068868-.096558.032987-.1870378.069844-.276488.1135375-.0894467.0436939-.1762577.0935623-.2581769.1470402-.0819374.0534506-.1603774.1108427-.234374.1730981-.0740061.0622555-.1449068.1290451-.2105709.1991559-.0656717.0701107-.1261766.1444754-.1831041.2214911-.0569343.0770154-.1096982.1552724-.1574702.2382424-.047784.08297-.089965.1689093-.1281735.2568553-.03824.087946-.072463.1778567-.1007076.269884l-.00549-.011167c-.029259.088587-.063268.1735093-.1043695.2587157-.0411.085235-.0873108.1704819-.13916001.2512714-.0518623.08079-.10875886.1592095-.1702867.23452-.06152126.0752822-.12945969.1452765-.19958717.2140454-.02345615.0229228-.0471579.0463077-.07141092.0688673v1.3568661c.0841496-.0069.16869765-.01146.25268413-.01117.0980067.000532.19460159.0055.29113647.01675.096506.01118.192075.02672.2856436.04839.093562.02153.1873502.04986.2764883.0819.089137.03203.1749366.06755.2581769.109814.08324.04229.1621641.0909.2380366.143318l-.00367-.01117c.07709.05573.1590743.106217.2416986.152624.08265.04642.1653874.08806.2526841.124705.087309.03662.178098.06863.2691635.09492.091069.02627.182537.04597.2764881.06142.093957.01537.1915304.02761.2874746.03164.09594.0042.1904391.0022.2874745-.0056.097035-.0078.1938919-.02259.2911356-.04281.097249-.02013.1945602-.04518.2911364-.07817.079894-.02739.1592027-.05846.2343739-.09306.07514-.03464.1459193-.07397.2160636-.115399.140285-.08287.2712766-.177875.3900132-.284774.118741-.106921.227153-.225007.3222685-.351789.0951361-.126747.1777154-.261507.2471913-.403895.0694592-.142374.1248651-.292967.1666249-.446705.0417562-.153752.0685658-.3119017.0805667-.4727623.0119906-.1608523.0106444-.3238624-.0091593-.4876526-.0099219-.0818479-.0238268-.1638599-.042108-.2456557-.0182343-.0818518-.0427207-.1644788-.0695799-.2456876-.0268405-.0812089-.055662-.1599807-.0897212-.2363813-.0340497-.0764006-.0727984-.1501782-.1135251-.221491-.081459-.1426816-.1769045-.2737655-.2819808-.3945891-.105097-.1208209-.2196449-.2307534-.3442362-.3275835-.1245679-.0968355-.2574354-.1804897-.3973369-.2512713-.1398988-.0707819-.286525-.1286336-.4376202-.1712369-.151098-.0425748-.3087811-.0714294-.4669168-.0837571zm4.7314231 2.4494306c-.1581357-.013698-.3184315-.013147-.4797343.00559-.080653.00923-.1610344.02303-.2416975.040948-.080663.017891-.1615447.040448-.2416986.067005-.080137.026557-.1589027.057292-.2343739.091202-.075469.033909-.1473462.070946-.2178946.1116762-.1410875.081487-.272035.1753416-.3918441.2810496-.1198054.105725-.2295195.222319-.325926.348057-.096405.12574-.1799504.262349-.2508532.403895-.070894.141564-.1288288.28979-.1721185.442983-.043275.15322-.072513.310269-.08606.470901-.013584.160628-.012787.323781.00549.487652.00909.08194.02463.163725.042114.245688.017494.08197.037977.164227.064086.245687.031547.09846.069539.193463.1116942.284775.042159.09133.089156.18052.1409899.2643.051834.08376.107886.162484.1684567.238242.060562.07579.1238862.148509.1922598.215908.068372.06741.1426522.129422.2178945.187988.075244.05856.1532027.110756.2343739.160069.081178.04935.162857.09437.2490223.134011.086175.03967.1770966.07651.2673325.106092l-.014648.0038c.086887.03055.1710555.06728.254515.109814.083465.04255.1663643.08988.2453605.143318.078994.05346.1553741.113587.2288812.176821.0735.06323.1435831.130979.2105699.202878.066975.0719.1328329.147627.1922598.227074.059437.07945.1121197.161673.162963.24755.05085.08589.097928.174944.1391599.266162.027113.06002.050827.122149.073242.184265h1.0162302l-.060422-.180543.00553-.0019-.00731-.02605c-.030591-.09544-.055294-.193904-.075075-.292219-.019772-.09832-.034838-.196224-.043945-.295942-.00909-.09971-.012421-.200066-.010987-.299664.00141-.0996.00822-.197955.020142-.295942.01185-.09801.029119-.19546.051272-.290359.022163-.09491.050072-.188874.082397-.279191.032325-.09032.067509-.176377.1098612-.260576.04237-.08423.09055-.165341.142823-.241966l-.01099.0038c.05555-.07783.107376-.160241.153808-.243826.04645-.08356.08769-.168462.12451-.256856.03683-.0884.06851-.179438.09522-.271745.0267-.09233.04801-.1857.06409-.281051.01606-.09535.02619-.19286.03112-.290358.005-.09748.0067-.195369 0-.294081-.0068-.09871-.0214-.198785-.04028-.297803-.01886-.09904-.04352-.197511-.07508-.295942-.02612-.08154-.05451-.159754-.08788-.236463-.03337-.07668-.07157-.151676-.111692-.223352-.08042-.143266-.172438-.276593-.276542-.398258-.1041007-.121757-.220402-.231675-.3442365-.329542-.123831-.097842-.254261-.1830941-.3936751-.254994-.1393887-.0718998-.2867677-.1311261-.4376201-.1749594-.1508731-.0438614-.3069361-.0719482-.4650851-.0856184z" fill="#444"/>
</svg>

<svg xmlns="http://www.w3.org/2000/svg" width="16" height="16" version="1.1">
 <path fill="#444" d="m 4.2151929,0.4999506 0.021972,0.065144 -0.00549,0.00186 0.00916,0.024196 c 0.030591,0.095438 0.053433,0.1920156 0.073242,0.290358 0.019772,0.098317 0.036682,0.1981245 0.045776,0.2978031 0.009,0.099715 0.012504,0.2000668 0.010987,0.2996644 -0.00141,0.099603 -0.010057,0.1997906 -0.021973,0.297803 -0.01185,0.09801 -0.027276,0.1936125 -0.049438,0.2884968 -0.022162,0.094906 -0.048232,0.1888738 -0.080567,0.2791904 -0.032325,0.090322 -0.069339,0.1782111 -0.1116932,0.2624391 -0.042366,0.084229 -0.092386,0.1634516 -0.1446528,0.2401037 l 0.010986,-0.00372 C 3.9179597,2.9211429 3.8661164,3.0035586 3.8196897,3.0871157 3.7732367,3.170673 3.733844,3.2555776 3.69701,3.3439708 3.660184,3.4323648 3.626669,3.5233813 3.599964,3.6157162 3.573264,3.7080512 3.553777,3.8013915 3.537708,3.8967679 3.52162,3.9921219 3.509661,4.0915114 3.504748,4.1889872 c -0.00497,0.097478 -0.00308,0.1935246 0.00367,0.2922192 0.00675,0.098709 0.01957,0.1987676 0.038452,0.2978032 0.018862,0.099016 0.041695,0.1974987 0.073242,0.2959418 0.0261,0.08146 0.058169,0.1615623 0.091552,0.2382424 0.033375,0.07668 0.06791,0.1498149 0.1080323,0.2214912 0.080222,0.1433525 0.1742158,0.2766465 0.278319,0.3983116 0.1041024,0.1216595 0.2203856,0.2315886 0.3442363,0.3294447 0.1238178,0.097842 0.25609,0.1830661 0.3955059,0.254994 0.1393944,0.0719 0.2867771,0.1292369 0.4376202,0.173098 0.1508786,0.043861 0.305106,0.07381 0.4632549,0.08748 0.1581583,0.013698 0.3184316,0.013149 0.4797344,-0.00559 0.080653,-0.00922 0.1610514,-0.023029 0.2416976,-0.040948 0.080672,-0.017891 0.1615446,-0.040449 0.2416986,-0.067006 0.080134,-0.026551 0.1589,-0.05543 0.2343703,-0.089338 C 7.0116115,6.5412218 7.0853059,6.502324 7.1558591,6.4615936 7.2969416,6.3801033 7.4278806,6.2844011 7.547702,6.1786788 7.6675008,6.0729535 7.7753906,5.9563456 7.871797,5.8306214 7.9682016,5.7048805 8.0517484,5.5719811 8.1226512,5.4304485 8.1935446,5.2888851 8.2496536,5.1406617 8.2929378,4.9874664 8.336222,4.8342738 8.3672812,4.6753353 8.3808281,4.514704 8.3944068,4.3540802 8.3918081,4.1909331 8.3734988,4.0270562 8.3644051,3.9451208 8.3525589,3.8633043 8.3350465,3.7813686 8.3175529,3.6994047 8.2934067,3.6171415 8.2672984,3.535681 8.2357423,3.4372241 8.1995925,3.3422326 8.1574352,3.2509069 8.115276,3.1595781 8.0682765,3.0722206 8.0164443,2.9884679 7.9646101,2.9047152 7.9085674,2.8241497 7.8479884,2.7483641 7.7874262,2.6725782 7.7222655,2.6017173 7.6538977,2.5343181 7.5855074,2.466947 7.5149074,2.4030341 7.439665,2.3444686 7.3644216,2.2859029 7.2846285,2.2318505 7.2034601,2.1825381 7.1222825,2.1331981 7.0387806,2.0900281 6.9526069,2.050388 6.8664323,2.0107198 6.7773412,1.9738722 6.6871054,1.9442956 l 0.012816,-0.00372 C 6.6130442,1.9100183 6.5288636,1.8751911 6.4454068,1.832616 6.3619416,1.7900687 6.2808764,1.7408583 6.2018774,1.6874369 6.1228839,1.6339867 6.0446847,1.5757115 5.9711662,1.5124775 5.8976666,1.4492442 5.8275822,1.3796098 5.7605954,1.3077379 5.6936114,1.2358383 5.6314272,1.1619721 5.5719984,1.0825244 5.5125696,1.0030772 5.4580468,0.9189915 5.4072035,0.8331143 5.3563538,0.7472374 5.3074512,0.6581694 5.2662136,0.5669528 5.256398,0.5451479 5.248988,0.5222552 5.2405788,0.499947 Z m 6.3848581,3.7672093 c -0.04832,0.00116 -0.09614,0.00352 -0.144653,0.00744 -0.09704,0.00783 -0.193906,0.020738 -0.291137,0.040948 -0.09725,0.020132 -0.1927539,0.045189 -0.289305,0.078177 C 9.795053,4.4211214 9.7157394,4.4521526 9.6405822,4.4867885 9.5654511,4.5214243 9.4928264,4.5588971 9.4226876,4.6003259 9.2823943,4.6831824 9.1532411,4.7781855 9.0345063,4.8850988 8.915766,4.9920261 8.8073652,5.111973 8.7122422,5.2387399 8.617108,5.3654872 8.5326959,5.5002753 8.46322,5.6426354 8.3937609,5.7850094 8.3401971,5.9355996 8.298426,6.0893401 8.25667,6.2430638 8.22985,6.4012281 8.217859,6.5621026 c -0.011991,0.1608801 -0.00882,0.322001 0.010987,0.4857912 0.0099,0.08188 0.02203,0.165725 0.040283,0.2475488 0.018234,0.081824 0.040908,0.1625896 0.067748,0.2438263 0.026841,0.081209 0.057485,0.1599807 0.091552,0.2363812 0.034041,0.076401 0.072792,0.1520117 0.1135251,0.2233525 0.081459,0.1426535 0.1750567,0.2737682 0.2801499,0.394589 0.1050867,0.1208209 0.2215002,0.2307534 0.3460681,0.3275834 0.1245744,0.096836 0.2574447,0.1804898 0.3973368,0.2512714 0.1399026,0.070753 0.2865295,0.1267724 0.4376201,0.1693756 0.1511,0.042575 0.306937,0.07143 0.465085,0.083757 0.158129,0.0123 0.318698,0.010821 0.479735,-0.00931 0.08052,-0.010063 0.161244,-0.024192 0.241697,-0.042809 0.08046,-0.018451 0.15997,-0.041584 0.239868,-0.068868 0.09656,-0.032987 0.190699,-0.073566 0.28015,-0.11726 0.08945,-0.043694 0.174416,-0.091729 0.256346,-0.1451791 0.08192,-0.053451 0.160376,-0.1108146 0.234374,-0.173098 0.07401,-0.062255 0.143067,-0.1271838 0.208739,-0.1972945 0.06567,-0.070111 0.128009,-0.1463368 0.184936,-0.2233523 0.05692,-0.077015 0.107858,-0.1571339 0.155639,-0.2401038 0.04778,-0.082971 0.09179,-0.167048 0.130005,-0.254994 0.03823,-0.087946 0.07245,-0.179746 0.100707,-0.2717454 l 0.0037,0.013029 c 0.02925,-0.088589 0.06328,-0.1735101 0.104369,-0.2587164 0.04111,-0.085234 0.08914,-0.1686206 0.14099,-0.2494101 0.05185,-0.08079 0.110597,-0.1610988 0.172119,-0.2363812 0.06152,-0.075283 0.127634,-0.1471385 0.197753,-0.2159073 0.0701,-0.06874 0.142118,-0.134324 0.219725,-0.1954333 0.07761,-0.061137 0.159502,-0.1169044 0.243529,-0.1693756 0.08403,-0.052472 0.170652,-0.1005747 0.260009,-0.1433176 0.06754,-0.032316 0.138522,-0.061174 0.208739,-0.08748 l 0.0019,0.00372 c 0.221804,-0.046237 0.432537,-0.067522 0.650022,-0.078173 0.103541,-0.00503 0.209056,-0.00819 0.31677,-0.00931 V 4.8664887 c -0.119854,0.00178 -0.241046,0.00604 -0.366209,0.013029 -0.255849,0.014257 -0.525482,0.043201 -0.818477,0.1005085 l -0.0019,-0.00559 -0.0238,0.00744 c -0.09361,0.031952 -0.189102,0.059013 -0.285643,0.080034 -0.09654,0.020966 -0.194958,0.036384 -0.292968,0.046532 -0.098,0.010063 -0.196807,0.01517 -0.294798,0.01489 -0.098,-5.312e-4 -0.194624,-0.00743 -0.291137,-0.018612 -0.09651,-0.011182 -0.192082,-0.026728 -0.285642,-0.048393 -0.09356,-0.021525 -0.185519,-0.049859 -0.274657,-0.081895 -0.08913,-0.032033 -0.174947,-0.067517 -0.258172,-0.1098124 -0.08324,-0.042295 -0.162158,-0.090903 -0.238037,-0.1433178 l 0.0037,0.011167 C 11.995215,4.676728 11.913236,4.6243895 11.830603,4.5779845 11.747963,4.5315235 11.66339,4.4899285 11.576087,4.4532796 c -0.0873,-0.036621 -0.176261,-0.068618 -0.267333,-0.094924 -0.09107,-0.026277 -0.184365,-0.044101 -0.278319,-0.05956 -0.09395,-0.015375 -0.189698,-0.027616 -0.285642,-0.031642 -0.04797,-0.00205 -0.0945,-0.00116 -0.142822,0 z M 3.7006691,6.6551686 c -0.1581498,-0.0123 -0.316866,-0.00896 -0.4779035,0.011167 -0.080522,0.010063 -0.1612378,0.026053 -0.2416974,0.044671 -0.080456,0.01845 -0.1617865,0.041612 -0.2416987,0.068868 -0.096558,0.032987 -0.1870378,0.069844 -0.276488,0.1135375 C 2.3734348,6.937106 2.2866238,6.9869744 2.2047046,7.0404523 2.1227672,7.0939029 2.0443272,7.151295 1.9703306,7.2135504 1.8963245,7.2758059 1.8254238,7.3425955 1.7597597,7.4127063 1.694088,7.482817 1.6335831,7.5571817 1.5766556,7.6341974 1.5197213,7.7112128 1.4669574,7.7894698 1.4191854,7.8724398 c -0.047784,0.08297 -0.089965,0.1689093 -0.1281735,0.2568553 -0.03824,0.087946 -0.072463,0.1778567 -0.1007076,0.269884 l -0.00549,-0.011167 c -0.029259,0.088587 -0.063268,0.1735093 -0.1043695,0.2587157 -0.0411,0.085235 -0.0873108,0.1704819 -0.13916001,0.2512714 -0.0518623,0.08079 -0.10875886,0.1592095 -0.1702867,0.23452 C 0.70947683,9.2078014 0.6415384,9.2777957 0.57141092,9.3465646 0.54795477,9.3694874 0.52425302,9.3928723 0.5,9.4154319 v 1.3568661 c 0.0841496,-0.0069 0.16869765,-0.01146 0.25268413,-0.01117 0.0980067,5.32e-4 0.19460159,0.0055 0.29113647,0.01675 0.096506,0.01118 0.192075,0.02672 0.2856436,0.04839 0.093562,0.02153 0.1873502,0.04986 0.2764883,0.0819 0.089137,0.03203 0.1749366,0.06755 0.2581769,0.109814 0.08324,0.04229 0.1621641,0.0909 0.2380366,0.143318 l -0.00367,-0.01117 c 0.07709,0.05573 0.1590743,0.106217 0.2416986,0.152624 0.08265,0.04642 0.1653874,0.08806 0.2526841,0.124705 0.087309,0.03662 0.178098,0.06863 0.2691635,0.09492 0.091069,0.02627 0.182537,0.04597 0.2764881,0.06142 0.093957,0.01537 0.1915304,0.02761 0.2874746,0.03164 0.09594,0.0042 0.1904391,0.0022 0.2874745,-0.0056 0.097035,-0.0078 0.1938919,-0.02259 0.2911356,-0.04281 0.097249,-0.02013 0.1945602,-0.04518 0.2911364,-0.07817 0.079894,-0.02739 0.1592027,-0.05846 0.2343739,-0.09306 0.07514,-0.03464 0.1459193,-0.07397 0.2160636,-0.115399 0.140285,-0.08287 0.2712766,-0.177875 0.3900132,-0.284774 0.118741,-0.106921 0.227153,-0.225007 0.3222685,-0.351789 C 5.5536067,10.51709 5.636186,10.38233 5.7056619,10.239942 5.7751211,10.097568 5.830527,9.946975 5.8722868,9.793237 5.914043,9.639485 5.9408526,9.4813353 5.9528535,9.3204747 5.9648441,9.1596224 5.9634979,8.9966123 5.9436942,8.8328221 5.9337723,8.7509742 5.9198674,8.6689622 5.9015862,8.5871664 5.8833519,8.5053146 5.8588655,8.4226876 5.8320063,8.3414788 5.8051658,8.2602699 5.7763443,8.1814981 5.7422851,8.1050975 5.7082354,8.0286969 5.6694867,7.9549193 5.62876,7.8836065 5.547301,7.7409249 5.4518555,7.609841 5.3467792,7.4890174 5.2416822,7.3681965 5.1271343,7.258264 5.002543,7.1614339 4.8779751,7.0645984 4.7451076,6.9809442 4.6052061,6.9101626 4.4653073,6.8393807 4.3186811,6.781529 4.1675859,6.7389257 4.0164879,6.6963509 3.8588048,6.6674963 3.7006691,6.6551686 Z m 4.7314231,2.4494306 c -0.1581357,-0.013698 -0.3184315,-0.013147 -0.4797343,0.00559 -0.080653,0.00923 -0.1610344,0.02303 -0.2416975,0.040948 -0.080663,0.017891 -0.1615447,0.040448 -0.2416986,0.067005 -0.080137,0.026557 -0.1589027,0.057292 -0.2343739,0.091202 C 7.1591189,9.3432532 7.0872417,9.3802902 7.0166933,9.4210204 6.8756058,9.5025074 6.7446583,9.596362 6.6248492,9.70207 6.5050438,9.807795 6.3953297,9.924389 6.2989232,10.050127 c -0.096405,0.12574 -0.1799504,0.262349 -0.2508532,0.403895 -0.070894,0.141564 -0.1288288,0.28979 -0.1721185,0.442983 -0.043275,0.15322 -0.072513,0.310269 -0.08606,0.470901 -0.013584,0.160628 -0.012787,0.323781 0.00549,0.487652 0.00909,0.08194 0.02463,0.163725 0.042114,0.245688 0.017494,0.08197 0.037977,0.164227 0.064086,0.245687 0.031547,0.09846 0.069539,0.193463 0.1116942,0.284775 0.042159,0.09133 0.089156,0.18052 0.1409899,0.2643 0.051834,0.08376 0.107886,0.162484 0.1684567,0.238242 0.060562,0.07579 0.1238862,0.148509 0.1922598,0.215908 0.068372,0.06741 0.1426522,0.129422 0.2178945,0.187988 0.075244,0.05856 0.1532027,0.110756 0.2343739,0.160069 0.081178,0.04935 0.162857,0.09437 0.2490223,0.134011 0.086175,0.03967 0.1770966,0.07651 0.2673325,0.106092 l -0.014648,0.0038 c 0.086887,0.03055 0.1710555,0.06728 0.254515,0.109814 0.083465,0.04255 0.1663643,0.08988 0.2453605,0.143318 0.078994,0.05346 0.1553741,0.113587 0.2288812,0.176821 0.0735,0.06323 0.1435831,0.130979 0.2105699,0.202878 0.066975,0.0719 0.1328329,0.147627 0.1922598,0.227074 0.059437,0.07945 0.1121197,0.161673 0.162963,0.24755 0.05085,0.08589 0.097928,0.174944 0.1391599,0.266162 0.027113,0.06002 0.050827,0.122149 0.073242,0.184265 h 1.0162302 l -0.060422,-0.180543 0.00553,-0.0019 -0.00731,-0.02605 c -0.030591,-0.09544 -0.055294,-0.193904 -0.075075,-0.292219 -0.019772,-0.09832 -0.034838,-0.196224 -0.043945,-0.295942 -0.00909,-0.09971 -0.012421,-0.200066 -0.010987,-0.299664 0.00141,-0.0996 0.00822,-0.197955 0.020142,-0.295942 0.01185,-0.09801 0.029119,-0.19546 0.051272,-0.290359 0.022163,-0.09491 0.050072,-0.188874 0.082397,-0.279191 0.032325,-0.09032 0.067509,-0.176377 0.1098612,-0.260576 0.04237,-0.08423 0.09055,-0.165341 0.142823,-0.241966 l -0.01099,0.0038 c 0.05555,-0.07783 0.107376,-0.160241 0.153808,-0.243826 0.04645,-0.08356 0.08769,-0.168462 0.12451,-0.256856 0.03683,-0.0884 0.06851,-0.179438 0.09522,-0.271745 0.0267,-0.09233 0.04801,-0.1857 0.06409,-0.281051 0.01606,-0.09535 0.02619,-0.19286 0.03112,-0.290358 0.005,-0.09748 0.0067,-0.195369 0,-0.294081 -0.0068,-0.09871 -0.0214,-0.198785 -0.04028,-0.297803 -0.01886,-0.09904 -0.04352,-0.197511 -0.07508,-0.295942 -0.02612,-0.08154 -0.05451,-0.159754 -0.08788,-0.236463 -0.03337,-0.07668 -0.07157,-0.151676 -0.111692,-0.223352 C 10.268831,10.204705 10.176813,10.071378 10.072709,9.949713 9.9686083,9.827956 9.852307,9.718038 9.7284725,9.620171 9.6046415,9.522329 9.4742115,9.4370769 9.3347974,9.365177 9.1954087,9.2932772 9.0480297,9.2340509 8.8971773,9.1902176 8.7463042,9.1463562 8.5902412,9.1182694 8.4320922,9.1045992 Z"/>
</svg>
